X:1
T:Title
%%score { ( 1 3 4 ) | ( 2 5 ) }
L:1/8
Q:1/4=100
M:3/4
K:F
V:1 treble nm="Grand Piano"
V:3 treble 
V:4 treble 
V:2 bass 
V:5 bass 
V:1
 A2 F2 C2 | z2 z G F2 | A2 F2 C2 | z2 z G F2 | B2 G2 E2 | z2 z d c2 | B2 D2 E2 | F4 z2 | A2 F2 C2 | %9
w: G.~Verdi * *|||||||||
 z2 z G F2 | A2 F2 C2 | z2 z G F2 | B2 G2 E2 | d2 ^c2 =c2 | G2 A2 =B2 | c6 | A2 A2 [GB]2 | %17
w: ||||||||
 [Ac]4 [Bd][Ac] | [FA]2 [FA]2 [GB]2 |[M:2/4] [Ac]4 |[M:1/4] [Af]2 |[M:3/4] [ce]2 [Bd]2 [Ac]2 | %22
w: |||||
 [FA]4 [Bd]>[Ac] | [Ac]2 [GB]2 [EG]2 |[M:2/4] [A,CF]4 |[M:1/4] CC |[M:3/4] c2 c>d c>d | [Bc]4 c2 | %28
w: ||||||
 [Ac]2 c>d c2 | [Ac]6 |[M:1/4] [Af]2 |[M:3/4] [ce]2 [Bd]2 [Ac]2 | [FA]4 [Bd]>[Ac] | %33
w: |||||
 [Ac]2 [GB]2 [EG]2 |[M:6/4] .[A,CF]6 z6 |] %35
w: ||
V:2
 F,,2 [F,A,C]2 [F,A,]2 | F,,2 [F,A,]2 [F,A,C]2 | F,,2 [F,A,C]2 [F,A,]2 | G,,2 [F,A,]2 [F,A,C]2 | %4
 C,2 [E,G,B,]2 [E,G,B,]2 | F,,2 [F,A,]2 [F,A,C]2 | C,2 [G,B,]2 [G,B,]2 | F,,2 [F,A,]2 [F,A,]2 | %8
 F,,2 [F,A,C]2 [F,A,]2 | F,,2 [F,A,]2 [F,A,C]2 | F,,2 [F,A,C]2 [F,A,]2 | F,,2 [F,A,]2 [F,A,C]2 | %12
 C,2 [E,G,B,]2 [E,G,B,]2 | F,,2 [F,A,C]2 [F,A,C]2 | [G,,G,]2 [D,F,G,=B,]2 [D,F,G,B,]2 | %15
 [C,E,G,C]6 | [F,CF]2 [F,CF]2 [F,C]2 | [F,F]4 [F,F][F,F] | [F,C]2 [F,C]2 [F,C]2 |[M:2/4] [F,F]4 | %20
[M:1/4] [F,D]2 |[M:3/4] [C,C]2 [C,C]2 [C,C]2 | [F,C]4 [F,C]>[F,D] | [C,C]2 [C,C]2 [C,B,]2 | %24
[M:2/4] [F,,F,]4 |[M:1/4] z2 |[M:3/4][K:treble] [CB]6 | z2 z2[K:treble] B2 | F,2 [CA]2 z z/ d/ | %29
 C,2 C4 |[M:1/4] [F,D]2 |[M:3/4] [C,C]2 [C,C]2 [C,C]2 | [F,C]4 [F,C]>[F,D] | %33
 [C,C]2 [C,C]2 [C,B,]2 |[M:6/4] .[F,,F,]6 z6 |] %35
V:3
 x6 | F4 z2 | x6 | F4 z2 | x6 | c4 z2 | x6 | z2 C2 C2 | x6 | F4 z2 | x6 | F4 z2 | x6 | x6 | x6 | %15
 x6 | x6 | x6 | x6 |[M:2/4] x4 |[M:1/4] x2 |[M:3/4] x6 | x6 | x6 |[M:2/4] x4 |[M:1/4] x2 | %26
[M:3/4] x6 | x6 | x6 | x6 |[M:1/4] x2 |[M:3/4] x6 | x6 | x6 |[M:6/4] x12 |] %35
V:4
 x6 | z2 C2 z2 | x6 | z2 C2 z2 | x6 | z2 C2 z2 | x6 | x6 | x6 | z2 C2 z2 | x6 | z2 C2 z2 | x6 | %13
 x6 | x6 | x6 | x6 | x6 | x6 |[M:2/4] x4 |[M:1/4] x2 |[M:3/4] x6 | x6 | x6 |[M:2/4] x4 | %25
[M:1/4] x2 |[M:3/4] x6 | x6 | x6 | x6 |[M:1/4] x2 |[M:3/4] x6 | x6 | x6 |[M:6/4] x12 |] %35
V:5
 x6 | x6 | x6 | x6 | x6 | x6 | x6 | x6 | x6 | x6 | x6 | x6 | x6 | x6 | x6 | x6 | x6 | x6 | x6 | %19
[M:2/4] x4 |[M:1/4] x2 |[M:3/4] x6 | x6 | x6 |[M:2/4] x4 |[M:1/4] x2 |[M:3/4][K:treble] x6 | %27
 C,6[K:treble] | z2 z2 C2 | x6 |[M:1/4] x2 |[M:3/4] x6 | x6 | x6 |[M:6/4] x12 |] %35

